elements/app-hax/lib/assets/images/SearchBar.svg

<svg width="344" height="46" viewBox="0 0 344 46" fill="none" xmlns="http://www.w3.org/2000/svg">
<rect width="344" height="46" fill="white"/>
<path fill-rule="evenodd" clip-rule="evenodd" d="M15.3156 15.3158H13.7367V18.4737H12.1577V21.6316H13.7367V24.7895H15.3156V26.3684H18.4735V27.9474H21.6314V26.3684H24.7893V24.7895H26.3682V21.6316H27.9472V18.4737H26.3682V15.3158H24.7893V13.7368H21.6314V12.1579H18.4735V13.7368H15.3156V15.3158ZM15.3156 15.3158V18.4737H13.7367V21.6316H15.3156V24.7895H18.4735V26.3684H21.6314V24.7895H24.7893V21.6316H26.3682V18.4737H24.7893V15.3158H21.6314V13.7368H18.4735V15.3158H15.3156Z" fill="black"/>
<path fill-rule="evenodd" clip-rule="evenodd" d="M29.5263 13.7368V16.8947H27.9474V13.7368H29.5263ZM26.3684 12.1579V13.7368H27.9474V12.1579H26.3684ZM23.2105 10.5789V12.1579H26.3684V10.5789H23.2105ZM16.8947 10.5789H23.2105V9H16.8947V10.5789ZM13.7368 12.1579H16.8947V10.5789H13.7368V12.1579ZM12.1579 13.7368V16.8947H10.5789V13.7368H12.1579ZM10.5789 23.2105V16.8947H9V23.2105H10.5789ZM12.1579 26.3684V23.2105H10.5789V26.3684H12.1579ZM13.7368 27.9474V26.3684H12.1579V27.9474H13.7368ZM16.8947 29.5263V27.9474H13.7368V29.5263H16.8947ZM23.2105 29.5263H16.8947V31.1053H23.2105V29.5263ZM26.3684 27.9474H23.2105V29.5263H26.3684V31.1053H27.9474V32.6842H29.5263V34.2632H31.1053V35.8421H32.6842V37.4211H34.2632V39H37.4211V37.4211H39V34.2632H37.4211V32.6842H35.8421V31.1053H34.2632V29.5263H32.6842V27.9474H31.1053V26.3684H29.5263V23.2105H31.1053V16.8947H29.5263V23.2105H27.9474V26.3684H26.3684V27.9474ZM26.3684 27.9474H27.9474V26.3684H29.5263V27.9474H31.1053V29.5263H32.6842V31.1053H34.2632V32.6842H35.8421V34.2632H37.4211V37.4211H34.2632V35.8421H32.6842V34.2632H31.1053V32.6842H29.5263V31.1053H27.9474V29.5263H26.3684V27.9474ZM12.1579 13.7368H13.7368V12.1579H12.1579V13.7368Z" fill="black"/>
<path fill-rule="evenodd" clip-rule="evenodd" d="M12.158 16.8947H10.5791V23.2105H12.158V26.3684H13.737V27.9473H16.8949V29.5263H23.2107V27.9473H26.3686V26.3684H27.9475V23.2105H29.5265V16.8947H27.9475V13.7368H26.3686V12.1579H23.2107V10.5789H16.8949V12.1579H13.737V13.7368H12.158V16.8947ZM13.737 18.4737H12.158V21.6315H13.737V24.7894H15.3159V26.3684H18.4738V27.9473H21.6317V26.3684H24.7896V24.7894H26.3686V21.6315H27.9475V18.4737H26.3686V15.3158H24.7896V13.7368H21.6317V12.1579H18.4738V13.7368H15.3159V15.3158H13.737V18.4737Z" fill="#777777"/>
<path d="M26.3684 27.9473H27.9474V26.3683H29.5263V27.9473H31.1052V29.5262H32.6842V31.1052H34.2631V32.6841H35.8421V34.2631H37.421V37.421H34.2631V35.842H32.6842V34.2631H31.1052V32.6841H29.5263V31.1052H27.9474V29.5262H26.3684V27.9473Z" fill="#494949"/>
<path d="M13.7371 18.4737H15.316V15.3158H18.4739V13.7368H21.6318V15.3158H24.7897V18.4737H26.3686V21.6316H24.7897V24.7894H21.6318V26.3684H18.4739V24.7894H15.316V21.6316H13.7371V18.4737Z" fill="#E9E9E9"/>
<path d="M18.4739 15.3157V16.8947H16.895V18.4736H15.316V21.6315H13.7371V18.4736H15.316V15.3157H18.4739Z" fill="white"/>
<path d="M20.8423 18.4736V16.8947H22.4213V18.4736H20.8423V20.0526H19.2634V18.4736H20.8423Z" fill="white"/>
<path d="M13.737 26.3684H12.158V23.2105H10.5791V16.8947H12.158V13.7368H13.737V12.1579H16.8949V10.5789H20.0528V12.1579H18.4738V13.7368H15.3159V15.3158H13.737V18.4737H12.158V21.6315H13.737V26.3684Z" fill="#959595"/>
<path d="M26.3684 27.9473H27.9474V29.5263H29.5263V31.1052H31.1052V32.6842H32.6842V34.2631H34.2631V35.8421H37.421V37.421H34.2631V35.8421H32.6842V34.2631H31.1052V32.6842H29.5263V31.1052H27.9474V29.5263H26.3684V27.9473Z" fill="#363636"/>
<path d="M23.2106 29.5264L20.0527 29.5264V27.9474L21.6317 27.9474V26.3685H24.7896V24.7895H26.3685V21.6316H27.9475V16.8948H29.5264V23.2106H27.9475V26.3685H26.3685V27.9474H23.2106V29.5264Z" fill="#626262"/>
<path d="M2 8H5V38H2V8Z" fill="#484848"/>
<path d="M5 8H8V11H5V8Z" fill="#484848"/>
<path d="M5 35H8V38H5V35Z" fill="#484848"/>
<path d="M8 5H11V8H8V5Z" fill="#484848"/>
<path d="M5 5H8V8H5V5Z" fill="#484848"/>
<path d="M5 38H8V41H5V38Z" fill="#484848"/>
<path d="M8 38H11V41H8V38Z" fill="#484848"/>
<path d="M8 41H335V44H8V41Z" fill="#484848"/>
<path d="M8 2H335V5H8V2Z" fill="#484848"/>
<path d="M332 38H335V41H332V38Z" fill="#484848"/>
<path d="M335 38H338V41H335V38Z" fill="#484848"/>
<path d="M335 35H338V38H335V35Z" fill="#484848"/>
<path d="M335 8H338V11H335V8Z" fill="#484848"/>
<path d="M335 5H338V8H335V5Z" fill="#484848"/>
<path d="M332 5H335V8H332V5Z" fill="#484848"/>
<path d="M338 8H341V38H338V8Z" fill="#484848"/>
<path d="M57.25 30.75V28.5H55V26.25H59.5V28.5H66.25V24H57.25V21.75H55V17.25H57.25V15H68.5V17.25H70.75V19.5H66.25V17.25H59.5V21.75H68.5V24H70.75V28.5H68.5V30.75H57.25ZM75.25 30.75V28.5H73V21.75H75.25V19.5H86.5V21.75H88.75V26.25H77.5V28.5H86.5V30.75H75.25ZM77.5 24H84.25V21.75H77.5V24ZM93.25 30.75V28.5H91V26.25H93.25V24H102.25V21.75H93.25V19.5H104.5V21.75H106.75V30.75H93.25ZM95.5 28.5H102.25V26.25H95.5V28.5ZM115.75 21.75H118V24H115.75V30.75H111.25V19.5H115.75V21.75ZM124.75 19.5V21.75H118V19.5H124.75ZM129.25 30.75V28.5H127V21.75H129.25V19.5H142.75V21.75H131.5V28.5H142.75V30.75H129.25ZM145 30.75V15H149.5V19.5H158.5V21.75H160.75V30.75H156.25V21.75H149.5V30.75H145Z" fill="black" fill-opacity="0.15"/>
</svg>

<svg xmlns="http://www.w3.org/2000/svg" fill="none" width="344" height="46" viewBox="0 0 344 46"><path d="M0 0h344v46H0z" fill="#fff"/><path d="M15.316 15.316h-1.58v3.158h-1.578v3.158h1.579v3.157h1.579v1.58h3.158v1.578h3.157v-1.579h3.158V24.79h1.58v-3.158h1.578v-3.158h-1.579v-3.158H24.79v-1.58h-3.158v-1.578h-3.157v1.579h-3.158v1.579Zm0 0v3.158h-1.58v3.158h1.58v3.157h3.158v1.58h3.157v-1.58h3.158v-3.157h1.58v-3.158h-1.58v-3.158h-3.158v-1.58h-3.157v1.58h-3.158Z" fill="#000" fill-rule="evenodd" clip-rule="evenodd"/><path d="M29.526 13.737v3.158h-1.579v-3.158h1.58Zm-3.158-1.58v1.58h1.58v-1.58h-1.58Zm-3.157-1.578v1.579h3.157v-1.58h-3.157Zm-6.316 0h6.316V9h-6.316v1.579Zm-3.158 1.579h3.158v-1.58h-3.158v1.58Zm-1.58 1.579v3.158H10.58v-3.158h1.579ZM10.58 23.21v-6.315H9v6.316h1.579Zm1.579 3.158v-3.157h-1.58v3.157h1.58Zm1.579 1.58v-1.58h-1.58v1.58h1.58Zm3.158 1.578v-1.579h-3.158v1.58h3.158Zm6.316 0h-6.316v1.58h6.316v-1.58Zm3.157-1.579h-3.157v1.58h3.157v1.578h1.58v1.58h1.578v1.578h1.58v1.58h1.578v1.578h1.58V39h3.157v-1.579H39v-3.158h-1.579v-1.579h-1.579v-1.579h-1.579v-1.579h-1.579v-1.579h-1.579v-1.579h-1.579v-3.157h1.58v-6.316h-1.58v6.316h-1.579v3.157h-1.579v1.58Zm0 0h1.58v-1.579h1.578v1.58h1.58v1.578h1.578v1.58h1.58v1.578h1.578v1.58h1.58v3.157h-3.159v-1.579h-1.579v-1.579h-1.579v-1.579h-1.579v-1.579h-1.579v-1.579h-1.579v-1.579Zm-14.21-14.21h1.579v-1.58h-1.58v1.58Z" fill="#000" fill-rule="evenodd" clip-rule="evenodd"/><path d="M12.158 16.895h-1.579v6.316h1.579v3.157h1.579v1.58h3.158v1.578h6.316v-1.579h3.158v-1.579h1.579v-3.157h1.578v-6.316h-1.578v-3.158h-1.58v-1.58h-3.157V10.58h-6.316v1.579h-3.158v1.579h-1.579v3.158Zm1.579 1.579h-1.579v3.157h1.579v3.158h1.579v1.58h3.158v1.578h3.158v-1.579h3.158V24.79h1.579v-3.158h1.579v-3.157h-1.58v-3.158H24.79v-1.58h-3.158v-1.578h-3.158v1.579h-3.158v1.579h-1.579v3.158Z" fill="#777" fill-rule="evenodd" clip-rule="evenodd"/><path d="M26.368 27.947h1.58v-1.579h1.578v1.58h1.58v1.578h1.578v1.58h1.58v1.578h1.578v1.58h1.579v3.157h-3.158v-1.579h-1.579v-1.579h-1.579v-1.579h-1.579v-1.579h-1.579v-1.579h-1.579v-1.579Z" fill="#494949"/><path d="M13.737 18.474h1.579v-3.158h3.158v-1.58h3.158v1.58h3.158v3.158h1.579v3.158h-1.58v3.157h-3.157v1.58h-3.158v-1.58h-3.158v-3.157h-1.579v-3.158Z" fill="#E9E9E9"/><path d="M18.474 15.316v1.579h-1.579v1.579h-1.579v3.157h-1.579v-3.157h1.579v-3.158h3.158Zm2.368 3.158v-1.58h1.58v1.58h-1.58v1.579h-1.579v-1.58h1.58Z" fill="#fff"/><path d="M13.737 26.368h-1.579v-3.157h-1.579v-6.316h1.579v-3.158h1.579v-1.58h3.158V10.58h3.158v1.579h-1.58v1.579h-3.157v1.579h-1.579v3.158h-1.579v3.157h1.579v4.737Z" fill="#959595"/><path d="M26.368 27.947h1.58v1.58h1.578v1.578h1.58v1.58h1.578v1.578h1.58v1.58h3.157v1.578h-3.158v-1.579h-1.579v-1.579h-1.579v-1.579h-1.579v-1.579h-1.579v-1.579h-1.579v-1.579Z" fill="#363636"/><path d="M23.21 29.526h-3.157v-1.579h1.579V26.37h3.158v-1.58h1.579v-3.157h1.579v-4.737h1.578v6.316h-1.578v3.158h-1.58v1.578h-3.157v1.58Z" fill="#626262"/><path d="M2 8h3v30H2V8Zm3 0h3v3H5V8Zm0 27h3v3H5v-3ZM8 5h3v3H8V5ZM5 5h3v3H5V5Zm0 33h3v3H5v-3Zm3 0h3v3H8v-3Zm0 3h327v3H8v-3ZM8 2h327v3H8V2Zm324 36h3v3h-3v-3Zm3 0h3v3h-3v-3Zm0-3h3v3h-3v-3Zm0-27h3v3h-3V8Zm0-3h3v3h-3V5Zm-3 0h3v3h-3V5Zm6 3h3v30h-3V8Z" fill="#484848"/><path d="M57.25 30.75V28.5H55v-2.25h4.5v2.25h6.75V24h-9v-2.25H55v-4.5h2.25V15H68.5v2.25h2.25v2.25h-4.5v-2.25H59.5v4.5h9V24h2.25v4.5H68.5v2.25H57.25Zm18 0V28.5H73v-6.75h2.25V19.5H86.5v2.25h2.25v4.5H77.5v2.25h9v2.25H75.25ZM77.5 24h6.75v-2.25H77.5V24Zm15.75 6.75V28.5H91v-2.25h2.25V24h9v-2.25h-9V19.5h11.25v2.25h2.25v9h-13.5Zm2.25-2.25h6.75v-2.25H95.5v2.25Zm20.25-6.75H118V24h-2.25v6.75h-4.5V19.5h4.5v2.25Zm9-2.25v2.25H118V19.5h6.75Zm4.5 11.25V28.5H127v-6.75h2.25V19.5h13.5v2.25H131.5v6.75h11.25v2.25h-13.5Zm15.75 0V15h4.5v4.5h9v2.25h2.25v9h-4.5v-9h-6.75v9H145Z" fill="#000" fill-opacity=".15"/></svg>
